symbols/web/collections_bookmark/materialsymbolssharp/collections_bookmark_wght500_40px.svg

<svg xmlns="http://www.w3.org/2000/svg" height="40" width="40"><path d="M11.958 28.042h22v-22h-2.625v11.583l-3.958-2.417-4 2.417V6.042H11.958Zm-3.166 3.166V2.875h28.333v28.333Zm-5.917 5.917V8.792h3.167v25.166h25.166v3.167Zm20.5-31.083h7.958Zm0 0h10.583-22 11.417Z"/></svg>

<svg xmlns="http://www.w3.org/2000/svg" height="40" width="40"><path d="M11.958 28.042H33.958V6.042H31.333V17.625L27.375 15.208L23.375 17.625V6.042H11.958ZM8.792 31.208V2.875H37.125V31.208ZM2.875 37.125V8.792H6.042V33.958H31.208V37.125ZM23.375 6.042H27.375H31.333ZM23.375 6.042H27.375H31.333H33.958H11.958H23.375Z"/></svg>
